assets/icons/windows.svg

<svg width="24" height="24" xmlns="http://www.w3.org/2000/svg"><path style="fill:gray;stroke-width:2;stroke-linecap:square;stroke-linejoin:round" d="M12 3c-.554 0-1 .446-1 1v8c0 .554.446 1 1 1h8c.554 0 1-.446 1-1V4c0-.554-.446-1-1-1h-8zm0 2h8v6c0 .753-.197 1-1 1h-6c-.79 0-1-.218-1-1V5zm-8 6c-.554 0-1 .446-1 1v8c0 .554.446 1 1 1h8c.554 0 1-.446 1-1v-6h-1v5c0 .753-.197 1-1 1H5c-.79 0-1-.218-1-1v-6h6v-2H4z"/></svg>

<?xml version="1.0" encoding="UTF-8" standalone="no"?>
<svg viewBox="0 0 24 24" width="24" height="24" version="1.1" id="svg8" sodipodi:docname="windows.svg" inkscape:version="1.1 (ce6663b3b7, 2021-05-25)"
   xmlns:inkscape="http://www.inkscape.org/namespaces/inkscape"
   xmlns:sodipodi="http://sodipodi.sourceforge.net/DTD/sodipodi-0.dtd"
   xmlns="http://www.w3.org/2000/svg"
   xmlns:svg="http://www.w3.org/2000/svg"
   xmlns:rdf="http://www.w3.org/1999/02/22-rdf-syntax-ns#"
   xmlns:cc="http://creativecommons.org/ns#"
   xmlns:dc="http://purl.org/dc/elements/1.1/">
   <metadata id="metadata14">
      <rdf:RDF>
         <cc:Work rdf:about="">
            <dc:format>image/svg+xml</dc:format>
            <dc:type rdf:resource="http://purl.org/dc/dcmitype/StillImage" />
         </cc:Work>
      </rdf:RDF>
   </metadata>
   <defs id="defs12" />
   <sodipodi:namedview pagecolor="#ffffff" bordercolor="#666666" borderopacity="1" objecttolerance="10" gridtolerance="10" guidetolerance="10" inkscape:pageopacity="0" inkscape:pageshadow="2" inkscape:window-width="1920" inkscape:window-height="1016" id="namedview10" showgrid="true" inkscape:zoom="27.500001" inkscape:cx="11.981818" inkscape:cy="13.945454" inkscape:window-x="0" inkscape:window-y="27" inkscape:window-maximized="1" inkscape:current-layer="svg8" inkscape:document-rotation="0" inkscape:pagecheckerboard="0" inkscape:snap-page="true">
      <inkscape:grid type="xygrid" id="grid839" />
   </sodipodi:namedview>
   <path id="rect31" style="fill:#808080;fill-rule:evenodd;stroke-width:2;stroke-linecap:square;stroke-linejoin:round" d="M 12 3 C 11.446 3 11 3.446 11 4 L 11 12 C 11 12.554 11.446 13 12 13 L 20 13 C 20.554 13 21 12.554 21 12 L 21 4 C 21 3.446 20.554 3 20 3 L 12 3 z M 12 5 L 20 5 L 20 11 C 20 11.75253 19.803153 12 19 12 L 13 12 C 12.209518 12 12 11.782141 12 11 L 12 5 z M 4 11 C 3.446 11 3 11.446 3 12 L 3 20 C 3 20.554 3.446 21 4 21 L 12 21 C 12.554 21 13 20.554 13 20 L 13 14 L 12 14 L 12 19 C 12 19.75253 11.803153 20 11 20 L 5 20 C 4.209518 20 4 19.782141 4 19 L 4 13 L 10 13 L 10 11 L 4 11 z " />
</svg>
